X: 27770
T: Mornington
R: reel
M: 4/4
K: Amajor
|:ABBc e2AB|Bce2 fece|efPf2 fece|efPf2 fecB|
ABBc e2AB|Bce2 fece|efPf2 feaf|ecBc A4:|
|:afec B3c|ecA2 A2ce|efPf2 fece|efPf2 fece|
afec B3c|ecA2 A2ce|efPf2 fece|ecBc A4:|

